SVG_Azure_Grouped/Management/Azure Arc SCVMM Management Server.svg

<?xml version="1.0" encoding="UTF-8" standalone="no"?>
<!-- Generated by Microsoft Visio, SVG Export Azure Arc SCVMM Management Server.svg Page-1 -->

<svg
   xmlns:dc="http://purl.org/dc/elements/1.1/"
   xmlns:cc="http://creativecommons.org/ns#"
   xmlns:rdf="http://www.w3.org/1999/02/22-rdf-syntax-ns#"
   xmlns:svg="http://www.w3.org/2000/svg"
   xmlns="http://www.w3.org/2000/svg"
   xmlns:sodipodi="http://sodipodi.sourceforge.net/DTD/sodipodi-0.dtd"
   xmlns:inkscape="http://www.inkscape.org/namespaces/inkscape"
   width="0.78694981in"
   height="0.78739226in"
   viewBox="0 0 56.660661 56.692553"
   xml:space="preserve"
   class="st7"
   version="1.1"
   id="svg55"
   sodipodi:docname="Azure Arc SCVMM Management Server.svg"
   style="font-size:12px;overflow:visible;color-interpolation-filters:sRGB;fill:none;fill-rule:evenodd;stroke-linecap:square;stroke-miterlimit:3"
   inkscape:version="0.92.5 (2060ec1f9f, 2020-04-08)"><metadata
   id="metadata59"><rdf:RDF><cc:Work
       rdf:about=""><dc:format>image/svg+xml</dc:format><dc:type
         rdf:resource="http://purl.org/dc/dcmitype/StillImage" /></cc:Work></rdf:RDF></metadata><sodipodi:namedview
   pagecolor="#ffffff"
   bordercolor="#666666"
   borderopacity="1"
   objecttolerance="10"
   gridtolerance="10"
   guidetolerance="10"
   inkscape:pageopacity="0"
   inkscape:pageshadow="2"
   inkscape:window-width="640"
   inkscape:window-height="480"
   id="namedview57"
   showgrid="false"
   inkscape:zoom="1.4193119"
   inkscape:cx="37.775004"
   inkscape:cy="37.781209"
   inkscape:window-x="0"
   inkscape:window-y="0"
   inkscape:window-maximized="0"
   inkscape:current-layer="svg55" />
	<style
   type="text/css"
   id="style2">
	<![CDATA[
		.st1 {fill:#5ea0ef;stroke:none;stroke-linecap:butt;stroke-width:34}
		.st2 {fill:#50e6ff;stroke:none;stroke-linecap:butt;stroke-width:34}
		.st3 {fill:#005ba1;stroke:none;stroke-linecap:butt;stroke-width:34}
		.st4 {fill:#0078d4;stroke:none;stroke-linecap:butt;stroke-width:34}
		.st5 {fill:#ffffff;stroke:none;stroke-linecap:butt;stroke-width:34}
		.st6 {fill:url(#grad0-18);stroke:none;stroke-linecap:butt;stroke-width:34}
		.st7 {fill:none;fill-rule:evenodd;font-size:12px;overflow:visible;stroke-linecap:square;stroke-miterlimit:3}
	]]>
	</style>

	<defs
   id="Patterns_And_Gradients">
		<linearGradient
   id="grad0-18"
   x1="-3.028049e-15"
   y1="122.4643"
   x2="23.856437"
   y2="122.4643"
   gradientTransform="scale(1.1732682,0.85232002)"
   gradientUnits="userSpaceOnUse">
			<stop
   offset="0.18"
   stop-color="#5ea0ef"
   stop-opacity="1"
   id="stop4" />
			<stop
   offset="1"
   stop-color="#0078d4"
   stop-opacity="1"
   id="stop6" />
		</linearGradient>
	</defs>
	<g
   id="g53"
   transform="translate(-34.001121,-33.998)">
		<title
   id="title10">Page-1</title>
		<g
   id="group12961-1"
   transform="translate(33.9718,-34.0157)">
			<title
   id="title12">Azure Arc SCVMM Management Server.12961</title>
			<g
   id="group12962-2">
				<title
   id="title14">g18</title>
				<g
   id="shape12963-3">
					<title
   id="title16">path2</title>
					<path
   d="m 56.6,115.4 c -0.53,2.34 -3.42,4.61 -8.65,6.4 A 71.3313,71.6463 0 0 1 7.9,121.85 c -4.82,-1.7 -7.42,-3.89 -7.82,-6.1 -0.08,-0.39 0,-6.37 0,-6.37 l 56.61,-0.53 c 0,0 -0.03,6.27 -0.09,6.55 z"
   class="st1"
   id="path18"
   inkscape:connector-curvature="0"
   style="fill:#5ea0ef;stroke:none;stroke-width:34;stroke-linecap:butt" />
				</g>
				<g
   id="shape12964-5"
   transform="translate(0.0094441,-5.46642)">
					<title
   id="title21">path4</title>
					<path
   d="m 56.68,114.42 v 0.08 c -0.04,5.4 -12.65,9.9 -28.23,10.05 -15.14,0.16 -27.53,-3.83 -28.38,-9.01 A 3.05044,3.06391 0 0 1 0.02,115 c -0.02,-2.38 2.4,-4.59 6.45,-6.34 a 59.778,60.042 0 0 1 21.79,-3.79 59.7717,60.0356 0 0 1 21.9,3.36 c 3.99,1.63 6.42,3.75 6.52,6.08 z"
   class="st2"
   id="path23"
   inkscape:connector-curvature="0"
   style="fill:#50e6ff;stroke:none;stroke-width:34;stroke-linecap:butt" />
				</g>
				<g
   id="shape12965-7"
   transform="translate(4.26873,-12.7863)">
					<title
   id="title26">rect6</title>
					<path
   d="m 0,122.93 a 1.77238,1.78021 -180 0 0 1.77,1.78 h 35.3 a 1.77238,1.78021 -180 0 0 1.77,-1.78 v -11.08 a 1.77238,1.78021 -180 0 0 -1.77,-1.78 H 1.77 A 1.77238,1.78021 -180 0 0 0,111.85 Z"
   class="st3"
   id="path28"
   inkscape:connector-curvature="0"
   style="fill:#005ba1;stroke:none;stroke-width:34;stroke-linecap:butt" />
				</g>
				<g
   id="shape12966-9"
   transform="translate(4.26873,-27.4197)">
					<title
   id="title31">rect8</title>
					<path
   d="m 0,122.93 a 1.77238,1.78021 -180 0 0 1.77,1.78 h 35.3 a 1.77238,1.78021 -180 0 0 1.77,-1.78 v -11.08 a 1.77238,1.78021 -180 0 0 -1.77,-1.78 H 1.77 A 1.77238,1.78021 -180 0 0 0,111.85 Z"
   class="st4"
   id="path33"
   inkscape:connector-curvature="0"
   style="fill:#0078d4;stroke:none;stroke-width:34;stroke-linecap:butt" />
				</g>
				<g
   id="shape12967-11"
   transform="translate(4.26873,-42.0563)">
					<title
   id="title36">rect10</title>
					<path
   d="m 0,122.93 a 1.77238,1.78021 -180 0 0 1.77,1.78 h 35.3 a 1.77238,1.78021 -180 0 0 1.77,-1.78 v -11.08 a 1.77238,1.78021 -180 0 0 -1.77,-1.78 H 1.77 A 1.77238,1.78021 -180 0 0 0,111.85 Z"
   class="st1"
   id="path38"
   inkscape:connector-curvature="0"
   style="fill:#5ea0ef;stroke:none;stroke-width:34;stroke-linecap:butt" />
				</g>
				<g
   id="shape12968-13"
   transform="translate(7.81656,-17.9529)">
					<title
   id="title41">path12</title>
					<path
   d="M 0,93.29 A 2.14066,2.15012 0 0 1 2.14,91.14 2.13751,2.14695 0 0 1 4.28,93.29 2.13751,2.14695 0 0 1 2.14,95.44 2.14066,2.15012 0 0 1 0,93.29 Z m 14.67,0 A 0.661087,0.664006 -180 0 0 14.005765,92.622832 L 7.2,92.62 a 0.66423699,0.66717 -180 1 0 0,1.33434 l 6.81,0.0057 a 0.664235,0.667168 -180 0 0 0.664235,-0.667168 z m 0,14.63 a 0.661087,0.664006 -180 0 0 -0.664235,-0.66717 L 7.2,107.25 a 0.66423699,0.66717 -180 0 0 0,1.33434 l 6.81,0.006 a 0.661087,0.664006 -180 0 0 0.664235,-0.66717 z m 0,14.64 a 0.661087,0.664006 -180 0 0 -0.664235,-0.66717 L 7.2,121.89 a 0.664235,0.667168 -180 1 0 0,1.33117 l 6.81,-0.001 a 0.661087,0.664006 -180 0 0 0.664235,-0.66401 z M 2.14,110.07 a 2.13751,2.14695 -180 0 0 2.14,-2.15 2.14066,2.15012 -180 0 0 -2.14,-2.15 2.14381,2.15328 -180 0 0 -2.14,2.15 2.14066,2.15012 -180 0 0 2.14,2.15 z m 0,14.64 a 2.14066,2.15012 -180 0 0 2.14,-2.15 2.13751,2.14695 -180 0 0 -2.14,-2.15 2.14066,2.15012 -180 0 0 -2.14,2.15 2.14381,2.15328 -180 0 0 2.14,2.15 z"
   class="st5"
   id="path43"
   inkscape:connector-curvature="0"
   style="fill:#ffffff;stroke:none;stroke-width:34;stroke-linecap:butt" />
				</g>
				<g
   id="shape12969-15"
   transform="translate(24.4602,-12.7895)">
					<title
   id="title46">path16</title>
					<path
   d="m 27.99,118.32 a 6.35903,6.38711 -180 0 0 -5.44,-6.15 8.02433,8.05977 -180 0 0 -8.16,-7.79 8.1597,8.19573 -180 0 0 -7.82,5.45 7.55528,7.58864 -180 0 0 -6.57,7.36 7.69379,7.72777 -180 0 0 7.87,7.52 h 13.81 a 6.42199,6.45035 -180 0 0 6.31,-6.39 z"
   class="st6"
   id="path48"
   inkscape:connector-curvature="0"
   style="fill:url(#grad0-18);stroke:none;stroke-width:34;stroke-linecap:butt" />
				</g>
			</g>
		</g>
	</g>
</svg>

<?xml version="1.0" encoding="UTF-8" standalone="no"?>
<!DOCTYPE svg PUBLIC "-//W3C//DTD SVG 1.1//EN" "http://www.w3.org/Graphics/SVG/1.1/DTD/svg11.dtd">
<!-- Generated by Microsoft Visio, SVG Export Azure Arc SCVMM Management Server.svg Page-1 -->
<svg xmlns="http://www.w3.org/2000/svg" xmlns:xlink="http://www.w3.org/1999/xlink" xmlns:ev="http://www.w3.org/2001/xml-events"
		width="1.73145in" height="1.73206in" viewBox="0 0 124.665 124.709" xml:space="preserve" color-interpolation-filters="sRGB"
		class="st7">
	<style type="text/css">
	<![CDATA[
		.st1 {fill:#5ea0ef;stroke:none;stroke-linecap:butt;stroke-width:34}
		.st2 {fill:#50e6ff;stroke:none;stroke-linecap:butt;stroke-width:34}
		.st3 {fill:#005ba1;stroke:none;stroke-linecap:butt;stroke-width:34}
		.st4 {fill:#0078d4;stroke:none;stroke-linecap:butt;stroke-width:34}
		.st5 {fill:#ffffff;stroke:none;stroke-linecap:butt;stroke-width:34}
		.st6 {fill:url(#grad0-18);stroke:none;stroke-linecap:butt;stroke-width:34}
		.st7 {fill:none;fill-rule:evenodd;font-size:12px;overflow:visible;stroke-linecap:square;stroke-miterlimit:3}
	]]>
	</style>

	<defs id="Patterns_And_Gradients">
		<linearGradient id="grad0-18" x1="0" y1="0" x2="1" y2="0" gradientTransform="rotate(90 0.5 0.5)">
			<stop offset="0.18" stop-color="#5ea0ef" stop-opacity="1"/>
			<stop offset="1" stop-color="#0078d4" stop-opacity="1"/>
		</linearGradient>
	</defs>
	<g>
		<title>Page-1</title>
		<g id="group12668-1" transform="translate(33.9718,-34.0157)">
			<title>Azure Arc SCVMM Management Server.12668</title>
			<g id="group12669-2">
				<title>g18</title>
				<g id="shape12670-3">
					<title>path2</title>
					<path d="M56.6 115.4 C56.07 117.74 53.18 120.01 47.95 121.8 A71.3313 71.6463 0 0 1 7.9 121.85 C3.08 120.15 0.48
								 117.96 0.08 115.75 C0 115.36 0.08 109.38 0.08 109.38 L56.69 108.85 C56.69 108.85 56.66 115.12 56.6
								 115.4 Z" class="st1"/>
				</g>
				<g id="shape12671-5" transform="translate(0.0094441,-5.46642)">
					<title>path4</title>
					<path d="M56.68 114.42 L56.68 114.5 C56.64 119.9 44.03 124.4 28.45 124.55 C13.31 124.71 0.92 120.72 0.07 115.54
								 A3.05044 3.06391 0 0 1 0.02 115 C0 112.62 2.42 110.41 6.47 108.66 A59.778 60.042 0 0 1 28.26 104.87
								 A59.7717 60.0356 0 0 1 50.16 108.23 C54.15 109.86 56.58 111.98 56.68 114.31 L56.68 114.42 Z"
							class="st2"/>
				</g>
				<g id="shape12672-7" transform="translate(4.26873,-12.7863)">
					<title>rect6</title>
					<path d="M0 122.93 A1.77238 1.78021 -180 0 0 1.77 124.71 L37.07 124.71 A1.77238 1.78021 -180 0 0 38.84 122.93
								 L38.84 111.85 A1.77238 1.78021 -180 0 0 37.07 110.07 L1.77 110.07 A1.77238 1.78021 -180 0 0 0 111.85
								 L0 122.93 Z" class="st3"/>
				</g>
				<g id="shape12673-9" transform="translate(4.26873,-27.4197)">
					<title>rect8</title>
					<path d="M0 122.93 A1.77238 1.78021 -180 0 0 1.77 124.71 L37.07 124.71 A1.77238 1.78021 -180 0 0 38.84 122.93
								 L38.84 111.85 A1.77238 1.78021 -180 0 0 37.07 110.07 L1.77 110.07 A1.77238 1.78021 -180 0 0 0 111.85
								 L0 122.93 Z" class="st4"/>
				</g>
				<g id="shape12674-11" transform="translate(4.26873,-42.0563)">
					<title>rect10</title>
					<path d="M0 122.93 A1.77238 1.78021 -180 0 0 1.77 124.71 L37.07 124.71 A1.77238 1.78021 -180 0 0 38.84 122.93
								 L38.84 111.85 A1.77238 1.78021 -180 0 0 37.07 110.07 L1.77 110.07 A1.77238 1.78021 -180 0 0 0 111.85
								 L0 122.93 Z" class="st1"/>
				</g>
				<g id="shape12675-13" transform="translate(7.81656,-17.9529)">
					<title>path12</title>
					<path d="M0 93.29 A2.14066 2.15012 0 0 1 2.14 91.14 A2.13751 2.14695 0 0 1 4.28 93.29 A2.13751 2.14695 0 0 1
								 2.14 95.44 A2.14066 2.15012 0 0 1 0 93.29 ZM14.67 93.29 a0.661087 0.664006 -180 0 0 -0.664235 -0.667168
								 L7.2 92.62 a0.664235 0.667168 -180 1 0 -8.88178E-15 1.33434 L14.01 93.96 a0.664235 0.667168 -180
								 0 0 0.664235 -0.667168 ZM14.67 107.92 a0.661087 0.664006 -180 0 0 -0.664235 -0.667168 L7.2 107.25
								 a0.664235 0.667168 -180 0 0 -9.76996E-15 1.33434 L14.01 108.59 a0.661087 0.664006 -180 0 0 0.664235
								 -0.667168 ZM14.67 122.56 a0.661087 0.664006 -180 0 0 -0.664235 -0.667168 L7.2 121.89 a0.664235 0.667168
								 -180 1 0 -8.88178E-15 1.33117 L14.01 123.22 a0.661087 0.664006 -180 0 0 0.664235 -0.664006 ZM2.14
								 110.07 A2.13751 2.14695 -180 0 0 4.28 107.92 A2.14066 2.15012 -180 0 0 2.14 105.77 A2.14381 2.15328
								 -180 0 0 0 107.92 A2.14066 2.15012 -180 0 0 2.14 110.07 ZM2.14 124.71 A2.14066 2.15012 -180 0 0
								 4.28 122.56 A2.13751 2.14695 -180 0 0 2.14 120.41 A2.14066 2.15012 -180 0 0 -0 122.56 A2.14381 2.15328
								 -180 0 0 2.14 124.71 Z" class="st5"/>
				</g>
				<g id="shape12676-15" transform="translate(24.4602,-12.7895)">
					<title>path16</title>
					<path d="M27.99 118.32 A6.35903 6.38711 -180 0 0 22.55 112.17 A8.02433 8.05977 -180 0 0 14.39 104.38 A8.1597
								 8.19573 -180 0 0 6.57 109.83 A7.55528 7.58864 -180 0 0 0 117.19 A7.69379 7.72777 -180 0 0 7.87 124.71
								 L21.68 124.71 A6.42199 6.45035 -180 0 0 27.99 118.32 Z" class="st6"/>
				</g>
			</g>
		</g>
	</g>
</svg>
